X:1
T:Title
%%score 1 2
L:1/8
Q:1/4=103
M:4/4
K:F
V:1 treble nm="Grand Piano, Soprano"
V:2 bass nm="Choir Pad, Holmby Hills, LMD"
V:1
 [Ac]2 [Ac]2- [Ac][Ac][FA][Ac] | F[FA] C6 | C2 [B,C]2 [B,G]2 [B,G]2- | %3
w: By~James~Holmes~Rosecrans,~1899 * * * * *|||
 [B,G][B,C] [A,C]2 [CA]2 [CA]2 | [Bc]2 [Ac]2- [Ac][Ac][FA][Ac] | F[FA] C6 | %6
w: |||
 [B,C]2 [B,C]2 [B,G]2 [B,G]2- | [B,G][B,C] [B,C]2 [B,G]2 [A,F]2 | [Fc]2 [Fd]2- [Fd][DB][Fc][FA] | %9
w: |||
 [GB][EG] [FA]6 | [FA]2 [GB]2- [GB][EG][FA][CF] | [CE][CF] [EG]6 | [Bc]2 [Ac]2- [Ac][FA][GB][FA] | %13
w: ||||
 [EG][CF] [B,D]6 | [Fd]2 [Fc]2- [Fc][FA][Fc][EB] | [FA][CG] [CF]6- | [CF]2 z2 z4 |] %17
w: ||||
V:2
 F,2 F,2- F,/ z/ F, F,F, | [F,A,][F,C] [F,A,]6 | [F,A,]2 [C,E,]2 [C,E,]2 [C,E,]2- | %3
 [C,E,][C,E,] F,2 F,2 F,2 | [E,G,]2 F,2- F,/ z/ F, F,F, | [F,A,][F,C] [F,A,]6 | %6
 [C,E,]2 [C,E,]2 [C,E,]2 [C,E,]2- | [C,E,][C,E,] [C,E,]2 [C,E,]2 F,2 | %8
 [F,A,]2 [B,,B,]2- [B,,B,][B,,F,][F,A,][F,C] | [C,C][C,C] [F,C]6 | %10
 [F,C]2 [C,C]2- [C,C][C,C][C,C][C,A,] | [C,G,][C,A,] [C,C]6 | [C,C]2 [F,C]2- [F,C][F,C][E,C][F,C] | %13
 [C,C][A,,F,] [B,,F,]6 | [B,,B,]2 [C,A,]2- [C,A,][C,C][C,A,][C,G,] | [C,C][C,B,] [F,A,]6- | %16
 [F,A,]2 z2 z4 |] %17

